X:1
T:Title
L:1/8
M:6/8
K:Eb
V:1 treble nm="Church Organ, Staff"
V:1
 G B2 G B2 | GF>E F C2 | D E2 F G2 | c B2- B3- | BBe- e/ z/ cd- | dBc- c/ z/ AB- | BGB- B/ z/ GF- | %7
w: By~Robert~Herick~(1591\-1674) * * *|||||||
 FEF- F3- | F2 G B2 G | B2 G F>EF | C2 D E2 F | G2 c B3- | B3 B e2 | cAG F B2 | GEF G B2 | %15
w: ||||||||
 GBG F E2- | E6 |] %17
w: ||

